X: 27515
T: Moment Of Inertia, The
R: jig
M: 6/8
K: Eminor
EFG EFG|BAA GGF|EFG EFG|FDA GFD|
EFG EFG|BAA GGF|EFG FDA|AGF E3:|
|:eBB fBB|gBf BeB|dAA eAA|fAd AeA|
eBB fBB|gBf BeB|dAA eAg|fad Be2:|

